X: 8
T: The Flowers Of Edinburgh
R: reel
M: 4/4
L: 1/8
K: Gmaj
|: GE |D3 E G3 A | BGdG cBAG | FGFE DEFG | AFdF E3 F |
D3 E G3 A | BGBd efge | dcBA GFGA | B2 G2 G2 :|
|: zd |gfga gbag | fdfg fagf | edef gfed | B2 e>f efge |
dBGB B/c/d cB | egfa g2 fe | dcBA GFGA | B2 G2 G2 :|


Tune 2549	Setting 15829

